dist/images/studiotempel-logo.svg

<?xml version="1.0" encoding="UTF-8"?>
<svg width="157px" height="23px" viewBox="0 0 157 23" version="1.1" xmlns="http://www.w3.org/2000/svg" xmlns:xlink="http://www.w3.org/1999/xlink">
    <title>Group</title>
    <g id="Page-1" stroke="none" stroke-width="1" fill="none" fill-rule="evenodd">
        <g id="Artboard" transform="translate(-26, -50)" fill="#222423" fill-rule="nonzero">
            <g id="Group" transform="translate(26, 50)">
                <path d="M130.969891,4.81869279 C132.801053,4.81869279 134.170225,5.43018102 135.078607,6.65552299 C135.985788,7.88086496 136.438179,9.56157051 136.438179,11.6976396 C136.438179,12.7254602 136.308582,13.6598426 136.048187,14.504335 C135.787792,15.3500102 135.4098,16.0738609 134.91421,16.6782525 C134.41862,17.2826442 133.817433,17.7498354 133.111847,18.0810089 C132.406261,18.4133652 131.608278,18.5777692 130.717896,18.5777692 C130.062709,18.5777692 129.412322,18.4630412 128.765535,18.230037 C128.118749,17.9982155 127.509161,17.5357554 126.937973,16.840291 L126.937973,23.0001182 L123.410045,23.0001182 L123.410045,5.216101 L126.838375,5.216101 L126.838375,6.92992389 C127.845154,5.52125373 129.222726,4.81869279 130.969891,4.81869279 Z M7.30785105,0 C8.61822434,0 9.71020209,0.147845315 10.5837843,0.44590147 C11.4573665,0.743957626 12.1629521,1.13781755 12.7005411,1.62629847 C13.2381302,2.11596215 13.6365221,2.6825054 13.8981167,3.32829374 C14.1585114,3.97408208 14.3301079,4.64352566 14.4141062,5.33899003 L10.8609786,5.78725702 C10.6761824,4.81029518 10.3197897,4.10655148 9.78940047,3.67602592 C9.26141123,3.24550036 8.4586276,3.03023758 7.38344951,3.03023758 C6.74506252,3.03023758 6.22067321,3.0834619 5.8090816,3.19109329 C5.39629001,3.29990744 5.06509676,3.43947342 4.8131019,3.61333951 C4.56110704,3.7872056 4.38471063,3.99064075 4.28391269,4.22246221 C4.18311474,4.45428366 4.13271577,4.69320169 4.13271577,4.94158182 C4.13271577,5.60511159 4.3223119,6.10187185 4.7003042,6.43304536 C5.0782965,6.76421886 5.72148339,7.02087833 6.6286649,7.201841 L9.09701459,7.67494601 C11.0457749,8.05579554 12.4749457,8.67319758 13.3809273,9.52478659 C14.2881088,10.3775583 14.7416995,11.6076313 14.7416995,13.2126401 C14.7416995,13.9920806 14.5941025,14.7076519 14.3013085,15.3617196 C14.0073145,16.01697 13.5705234,16.5870616 12.9897352,17.0755425 C12.411347,17.5640234 11.6841619,17.9448729 10.8105797,18.2180911 C9.93699746,18.4913092 8.91221835,18.6285097 7.73624232,18.6285097 C5.28349231,18.6285097 3.40673057,18.1104597 2.1047571,17.0755425 C0.802783638,16.0406253 0.100797946,14.4805615 0,12.3941684 L3.80512245,12.3941684 C3.88912073,13.487041 4.24671345,14.2818574 4.8767006,14.7786177 C5.50668776,15.2753779 6.43426886,15.5237581 7.66064386,15.5237581 C8.24863188,15.5237581 8.74422178,15.4610716 9.14741356,15.3368816 C9.55060534,15.2126915 9.87939864,15.0471048 10.1301935,14.8401213 C10.3821884,14.6343206 10.5633847,14.3894888 10.6725825,14.1068086 C10.7805803,13.8264938 10.8357791,13.5201583 10.8357791,13.1889848 C10.8357791,12.7253419 10.6593827,12.2900853 10.3065899,11.8843978 C9.95379712,11.479893 9.30701031,11.1853851 8.36622948,11.0020569 L6.02387722,10.5809935 C5.09869608,10.4154067 4.28391269,10.2001439 3.57952704,9.93520519 C2.87394143,9.67026638 2.27995353,9.32608249 1.80236327,8.90383627 C1.32357303,8.48159005 0.957580483,7.96472282 0.705585619,7.35086908 C0.453590755,6.73938085 0.328793299,6.01079914 0.328793299,5.1663067 C0.328793299,4.32181426 0.499189826,3.57667387 0.843582806,2.93088553 C1.18797579,2.28391443 1.66796601,1.74694025 2.27995353,1.31641469 C2.89314103,0.885889128 3.62992602,0.55826391 4.48550858,0.334721793 C5.34229111,0.111179677 6.28307194,0 7.30785105,0 Z M29.8348719,5.2156279 L29.8348719,13.3128201 C29.8348719,14.2401059 30.0028685,14.8646045 30.3388616,15.1886814 C30.6760548,15.5103928 31.1368454,15.6724313 31.7260334,15.6724313 C32.1796241,15.6724313 32.5528165,15.6061966 32.8468105,15.4737272 C33.1408045,15.3412578 33.4227988,15.150833 33.6903933,14.9012701 C33.9603878,14.6706314 34.1739835,14.393865 34.3335802,14.0697881 C34.493177,13.7480767 34.5735753,13.3956134 34.5735753,13.0147639 L34.5735753,5.2156279 L38.1015034,5.2156279 L38.1015034,18.1810706 L34.6743733,18.1810706 L34.6743733,16.3927337 C34.1355842,17.1544327 33.5283966,17.7091484 32.8468105,18.0556978 C32.1664244,18.4046127 31.4392392,18.5784788 30.6676549,18.5784788 C29.1724854,18.5784788 28.0721078,18.194081 27.3665222,17.4229198 C26.6609366,16.6541242 26.3081438,15.4417926 26.3081438,13.7847423 L26.3081438,5.2156279 L29.8348719,5.2156279 Z M69.0456327,4.81857452 C70.0704118,4.81857452 70.994393,4.97588193 71.8187762,5.289314 C72.6407594,5.60511159 73.3427451,6.05692688 73.9211333,6.64357709 C74.5019215,7.23141006 74.9423125,7.95171244 75.2447064,8.80448422 C75.5471002,9.65843876 75.6982971,10.6141108 75.6982971,11.673866 C75.6982971,12.7501799 75.5435003,13.7141314 75.2315066,14.5669032 C74.920713,15.4208577 74.475522,16.1447084 73.8971338,16.7408207 C73.3175456,17.336933 72.6155599,17.7922966 71.7923767,18.1057286 C70.9703935,18.4215262 70.0536122,18.5788336 69.0456327,18.5788336 C66.9288758,18.5788336 65.2909092,17.9827213 64.1317329,16.7904967 C62.9725565,15.5982721 62.3929683,13.8927285 62.3929683,11.673866 C62.3929683,10.6141108 62.5489651,9.65843876 62.8597588,8.80448422 C63.1705524,7.95171244 63.6157434,7.23141006 64.1953316,6.64357709 C64.7737198,6.05692688 65.4757055,5.60511159 66.2988887,5.289314 C67.1220719,4.97588193 68.0376532,4.81857452 69.0456327,4.81857452 Z M144.979845,4.81786486 C146.995804,4.81786486 148.512573,5.38913916 149.527752,6.53287052 C150.544132,7.67423635 151.052921,9.21419315 151.052921,11.1515581 L151.052921,12.5436696 L141.930707,12.5436696 C141.964306,13.5856834 142.233101,14.4017895 142.737091,14.9896225 C143.24108,15.5774555 143.997065,15.8707806 145.005044,15.8707806 C146.399416,15.8707806 147.223799,15.2912269 147.475794,14.1321197 L150.901724,14.1321197 C150.666529,15.5904659 150.074941,16.6939833 149.12576,17.4485858 C148.17538,18.2020055 146.794208,18.578124 144.979845,18.578124 C142.79589,18.578124 141.153123,17.9820117 140.053945,16.7897871 C138.953568,15.5987452 138.402779,13.9085776 138.402779,11.7228324 C138.402779,10.6299598 138.562376,9.6577291 138.881569,8.80377456 C139.200763,7.95218554 139.650754,7.22715212 140.229142,6.63222257 C140.80993,6.03611026 141.502316,5.58429497 142.308699,5.27795948 C143.115083,4.97162399 144.005465,4.81786486 144.979845,4.81786486 Z M93.1453415,4.81786486 C95.1613004,4.81786486 96.6780695,5.38913916 97.6932488,6.53287052 C98.7096281,7.67423635 99.2184177,9.21419315 99.2184177,11.1515581 L99.2184177,12.5436696 L90.0962036,12.5436696 C90.129803,13.5856834 90.3985975,14.4017895 90.9025872,14.9896225 C91.4065769,15.5774555 92.1625615,15.8707806 93.170541,15.8707806 C94.5649126,15.8707806 95.3892958,15.2912269 95.6412906,14.1321197 L99.0672208,14.1321197 C98.8320256,15.5904659 98.2404376,16.6939833 97.291257,17.4485858 C96.3408764,18.2020055 94.9597045,18.578124 93.1453415,18.578124 C90.961386,18.578124 89.3186195,17.9820117 88.2194419,16.7897871 C87.1190643,15.5987452 86.5682756,13.9085776 86.5682756,11.7228324 C86.5682756,10.6299598 86.7278723,9.6577291 87.0470658,8.80377456 C87.3662593,7.95218554 87.8162501,7.22715212 88.3946383,6.63222257 C88.9754265,6.03611026 89.6678124,5.58429497 90.4741959,5.27795948 C91.2805795,4.97162399 92.1709614,4.81786486 93.1453415,4.81786486 Z M53.5233491,0.446138023 L53.5233491,18.1804792 L50.0962189,18.1804792 L50.0962189,16.4666563 C49.0894395,17.8753265 47.7274672,18.5778874 46.0139021,18.5778874 C44.1659398,18.5778874 42.7895679,17.9663992 41.8811864,16.7410572 C40.9740049,15.5157153 40.5204141,13.818451 40.5204141,11.6480818 C40.5204141,10.6380026 40.6500115,9.71544791 40.9104062,8.87923481 C41.1720008,8.0430217 41.5451932,7.32271933 42.0323833,6.71832768 C42.5195734,6.11393603 43.1159612,5.64674483 43.8215468,5.31438857 C44.5271324,4.98321506 45.3251162,4.81881107 46.215498,4.81881107 C46.8706847,4.81881107 47.5222714,4.93353903 48.1690582,5.16654325 C48.8146451,5.3983647 49.4242326,5.84544894 49.995421,6.50661319 L49.995421,0.446138023 L53.5233491,0.446138023 Z M21.4691224,1.76314409 L21.4691224,5.2156279 L24.4930608,5.2156279 L24.4930608,7.92297131 L21.4691224,7.92297131 L21.4691224,13.9089324 C21.4691224,14.5878381 21.6131195,15.0467499 21.8987137,15.2880335 C22.1831079,15.5281343 22.5539003,15.6475933 23.0074911,15.6475933 C23.2414863,15.6475933 23.4814814,15.6357657 23.7250764,15.6097449 C23.9674715,15.5860896 24.2074666,15.5399619 24.4426618,15.4737272 L24.9466515,18.0320425 C24.4606614,18.1810706 23.9854711,18.2839709 23.5234805,18.3431091 C23.06149,18.3998817 22.619899,18.4294507 22.2011075,18.4294507 C20.755137,18.4294507 19.6847588,18.0899979 18.987573,17.4099094 C18.2903872,16.7321865 17.9411943,15.5896379 17.9411943,13.9834464 L17.9411943,7.92297131 L15.8748364,7.92297131 L15.8748364,5.2156279 L17.9411943,5.2156279 L17.9411943,1.76314409 L21.4691224,1.76314409 Z M156.99892,0.44684768 L156.99892,18.1811889 L153.472192,18.1811889 L153.472192,0.44684768 L156.99892,0.44684768 Z M59.9484981,5.21574617 L59.9484981,18.1811889 L56.42177,18.1811889 L56.42177,5.21574617 L59.9484981,5.21574617 Z M116.582184,4.81821969 C117.941756,4.81821969 118.962935,5.18724159 119.642121,5.92410265 C120.323708,6.6609637 120.663301,7.85673661 120.663301,9.51260414 L120.663301,18.1810706 L117.136573,18.1810706 L117.136573,9.98452638 C117.136573,9.52088347 117.093373,9.14358223 117.009375,8.85380541 C116.925377,8.56521136 116.812579,8.33693819 116.669782,8.17135144 C116.526985,8.00576468 116.354188,7.88985396 116.152593,7.82361926 C115.950997,7.75738455 115.741001,7.7242672 115.522605,7.7242672 C115.169813,7.7242672 114.845819,7.78222257 114.553025,7.89813329 C114.259031,8.01404402 113.968637,8.21274813 113.684243,8.49306284 C113.447848,8.72606706 113.258252,8.99100586 113.116654,9.28906202 C112.973857,9.58711818 112.901859,9.90173301 112.901859,10.2329065 L112.901859,18.1810706 L109.373931,18.1810706 L109.373931,9.98452638 C109.373931,9.52088347 109.333132,9.14358223 109.247933,8.85380541 C109.163935,8.56521136 109.049937,8.33693819 108.90834,8.17135144 C108.765543,8.00576468 108.592747,7.88985396 108.391151,7.82361926 C108.189555,7.75738455 107.979559,7.7242672 107.761164,7.7242672 C107.408371,7.7242672 107.085577,7.78222257 106.790383,7.89813329 C106.496389,8.01404402 106.207195,8.21274813 105.921601,8.49306284 C105.687606,8.72606706 105.49681,9.00283349 105.355213,9.32691042 C105.212416,9.64862183 105.140417,10.001085 105.140417,10.3819345 L105.140417,18.1810706 L101.612489,18.1810706 L101.612489,5.2156279 L105.039619,5.2156279 L105.039619,6.9542888 C105.526809,6.22570709 106.097997,5.68636738 106.753184,5.3386352 C107.408371,4.99208578 108.097157,4.81821969 108.819542,4.81821969 C109.778322,4.81821969 110.558307,5.00864445 111.163094,5.38831122 C111.767882,5.77034352 112.196273,6.32505914 112.448268,7.05364085 C113.053056,6.25882444 113.691443,5.68636738 114.363429,5.3386352 C115.035415,4.99208578 115.7746,4.81821969 116.582184,4.81821969 Z M88.3576791,0.446374575 L88.3576791,3.65047825 L82.9397895,3.65047825 L82.9397895,18.1807158 L79.1598666,18.1807158 L79.1598666,3.65047825 L73.741977,3.65047825 L73.741977,0.446374575 L88.3576791,0.446374575 Z M69.0456327,7.59924921 C68.0376532,7.59924921 67.2852686,7.94698139 66.7908787,8.64244575 C66.2952888,9.33909288 66.0468938,10.349172 66.0468938,11.673866 C66.0468938,13.013936 66.2904889,14.0382083 66.7776789,14.7407693 C67.266069,15.444513 68.0208536,15.7969762 69.0456327,15.7969762 C70.0536122,15.7969762 70.8059968,15.4409647 71.3015867,14.7289416 C71.7971766,14.0169186 72.0443716,12.9985601 72.0443716,11.673866 C72.0443716,10.349172 71.7971766,9.33909288 71.3015867,8.64244575 C70.8059968,7.94698139 70.0536122,7.59924921 69.0456327,7.59924921 Z M129.961911,7.64904351 C129.52512,7.64904351 129.147128,7.70818163 128.829134,7.82409236 C128.508741,7.93882033 128.197947,8.12214852 127.895553,8.37052865 C127.55956,8.68396071 127.312365,9.08136892 127.152768,9.56157051 C126.991972,10.0429548 126.912773,10.654443 126.912773,11.3995834 L126.912773,11.7969916 C126.912773,12.6426668 126.984772,13.3168415 127.127569,13.8218811 C127.270366,14.3281034 127.500761,14.7361565 127.819955,15.0507713 C128.155948,15.3500102 128.495541,15.5439833 128.839934,15.635056 C129.185527,15.7261287 129.53472,15.7710737 129.887513,15.7710737 C130.272705,15.7710737 130.642297,15.6977424 130.99509,15.5487143 C131.347883,15.3996863 131.653877,15.1631338 131.915471,14.8402396 C132.175866,14.5173454 132.382262,14.0986475 132.533459,13.5865113 C132.684656,13.0731924 132.759054,12.4522421 132.759054,11.7236603 C132.759054,10.9619613 132.687056,10.3244523 132.544258,9.80995064 C132.401461,9.29781446 132.204665,8.87911653 131.952671,8.55622236 C131.700676,8.23332819 131.401882,8.00150674 131.058689,7.860758 C130.714296,7.72000926 130.348303,7.64904351 129.961911,7.64904351 Z M47.0470811,7.62550653 C46.660689,7.62550653 46.2958964,7.69883781 45.9503034,7.84786589 C45.6059105,7.99689397 45.3035166,8.22871542 45.0443219,8.54333025 C44.7839272,8.85912784 44.5775314,9.27191196 44.4263345,9.78641366 C44.2751376,10.2985498 44.1995391,10.9124035 44.1995391,11.6232438 C44.1995391,12.4026843 44.2715377,13.0520209 44.4143347,13.5736192 C44.5559319,14.0952175 44.7539278,14.5174637 45.0059227,14.8403579 C45.2579175,15.163252 45.5519116,15.3950735 45.8891047,15.5358222 C46.2238979,15.676571 46.5850905,15.7475367 46.9714826,15.7475367 C47.8114655,15.7475367 48.5002515,15.5074359 49.0390405,15.0260516 C49.3738337,14.6948781 49.6210286,14.2939216 49.7818253,13.8219993 C49.9414221,13.3488943 50.0206205,12.7421372 50.0206205,11.9969968 L50.0206205,11.5487298 C50.0206205,10.7219788 49.9486219,10.058449 49.8058249,9.56168878 C49.6630278,9.06492852 49.4326325,8.66042374 49.113439,8.34462615 C48.8110451,8.04656999 48.4798519,7.85259694 48.1186592,7.76152422 C47.7562666,7.67045151 47.3998739,7.62550653 47.0470811,7.62550653 Z M93.069743,7.42585622 C92.5993526,7.42585622 92.188961,7.50037026 91.8361682,7.64939834 C91.4821754,7.79842641 91.1845815,8.00186157 90.9409864,8.25852104 C90.6961914,8.5151805 90.5077953,8.81323666 90.373398,9.15150674 C90.2390007,9.49214235 90.1634023,9.85998149 90.1466026,10.2573896 L95.8164871,10.2573896 C95.8164871,9.36322123 95.5932916,8.66775687 95.1481007,8.17099661 C94.7029098,7.67423635 94.0105239,7.42585622 93.069743,7.42585622 Z M144.904247,7.42585622 C144.433856,7.42585622 144.023464,7.50037026 143.670672,7.64939834 C143.316679,7.79842641 143.019085,8.00186157 142.77549,8.25852104 C142.530695,8.5151805 142.342299,8.81323666 142.207901,9.15150674 C142.073504,9.49214235 141.997906,9.85998149 141.981106,10.2573896 L147.650991,10.2573896 C147.650991,9.36322123 147.427795,8.66775687 146.982604,8.17099661 C146.537413,7.67423635 145.845027,7.42585622 144.904247,7.42585622 Z M59.9988971,0.44684768 L59.9988971,3.57643732 L56.371371,3.57643732 L56.371371,0.44684768 L59.9988971,0.44684768 Z" id="Combined-Shape"></path>
            </g>
        </g>
    </g>
</svg>

<svg width="157" height="23" xmlns="http://www.w3.org/2000/svg"><path d="M130.97 4.819c1.831 0 3.2.611 4.109 1.837.907 1.225 1.36 2.906 1.36 5.042 0 1.027-.13 1.962-.39 2.806-.261.846-.64 1.57-1.135 2.174a5.11 5.11 0 0 1-1.802 1.403c-.706.332-1.504.497-2.394.497a5.72 5.72 0 0 1-1.952-.348c-.647-.232-1.257-.694-1.828-1.39V23h-3.528V5.216h3.428V6.93c1.007-1.409 2.385-2.111 4.132-2.111ZM7.308 0c1.31 0 2.402.148 3.276.446.873.298 1.579.692 2.117 1.18.537.49.936 1.057 1.197 1.702a7.9 7.9 0 0 1 .516 2.011l-3.553.448c-.185-.977-.541-1.68-1.072-2.111-.528-.43-1.33-.646-2.406-.646-.638 0-1.162.053-1.574.161-.413.109-.744.248-.996.422a1.451 1.451 0 0 0-.53.61c-.1.231-.15.47-.15.719 0 .663.19 1.16.567 1.491.378.331 1.021.588 1.929.769l2.468.473c1.949.38 3.378.998 4.284 1.85.907.853 1.36 2.083 1.36 3.688 0 .78-.147 1.495-.44 2.149a4.778 4.778 0 0 1-1.311 1.714c-.579.488-1.306.869-2.18 1.142-.873.273-1.898.41-3.074.41-2.453 0-4.33-.518-5.631-1.552C.803 16.04.1 14.48 0 12.394h3.805c.084 1.093.442 1.888 1.072 2.385.63.496 1.557.745 2.784.745.588 0 1.083-.063 1.486-.187.404-.124.732-.29.983-.497.252-.206.433-.45.543-.733.108-.28.163-.587.163-.918 0-.464-.177-.899-.53-1.305-.352-.404-.999-.699-1.94-.882l-2.342-.421a13.96 13.96 0 0 1-2.444-.646c-.706-.265-1.3-.609-1.778-1.031A4.129 4.129 0 0 1 .706 7.35C.454 6.739.329 6.01.329 5.166c0-.844.17-1.59.515-2.235A4.592 4.592 0 0 1 2.28 1.316C2.893.886 3.63.558 4.486.335 5.342.11 6.283 0 7.308 0Zm22.527 5.216v8.097c0 .927.168 1.552.504 1.876.337.321.798.483 1.387.483.454 0 .827-.066 1.12-.198a3.1 3.1 0 0 0 .844-.573c.27-.23.484-.507.644-.831.16-.322.24-.674.24-1.055v-7.8h3.528v12.966h-3.428v-1.788c-.538.761-1.146 1.316-1.827 1.663a4.71 4.71 0 0 1-2.18.522c-1.495 0-2.595-.384-3.3-1.155-.706-.769-1.059-1.981-1.059-3.638v-8.57h3.527Zm39.21-.397c1.025 0 1.95.157 2.774.47a5.863 5.863 0 0 1 2.102 1.355c.58.587 1.021 1.308 1.324 2.16.302.854.453 1.81.453 2.87 0 1.076-.154 2.04-.466 2.893-.311.854-.756 1.578-1.335 2.174a5.742 5.742 0 0 1-2.105 1.365c-.822.316-1.738.473-2.746.473-2.117 0-3.755-.596-4.914-1.789-1.16-1.192-1.739-2.897-1.739-5.116 0-1.06.156-2.016.467-2.87.31-.852.756-1.573 1.335-2.16A5.857 5.857 0 0 1 66.3 5.289c.823-.313 1.739-.47 2.747-.47Zm75.935-.001c2.016 0 3.533.571 4.548 1.715 1.016 1.141 1.525 2.681 1.525 4.619v1.392h-9.122c.033 1.042.302 1.858.806 2.446.504.587 1.26.88 2.268.88 1.394 0 2.219-.579 2.47-1.738h3.427c-.235 1.458-.827 2.562-1.776 3.317-.95.753-2.332 1.13-4.146 1.13-2.184 0-3.827-.597-4.926-1.79-1.1-1.19-1.651-2.88-1.651-5.066 0-1.093.16-2.065.479-2.92.319-.85.769-1.576 1.347-2.17a5.678 5.678 0 0 1 2.08-1.355c.806-.306 1.696-.46 2.67-.46Zm-51.835 0c2.016 0 3.533.571 4.548 1.715 1.017 1.141 1.525 2.681 1.525 4.619v1.392h-9.122c.034 1.042.303 1.858.807 2.446.504.587 1.26.88 2.268.88 1.394 0 2.218-.579 2.47-1.738h3.426c-.235 1.458-.827 2.562-1.776 3.317-.95.753-2.331 1.13-4.146 1.13-2.184 0-3.826-.597-4.926-1.79-1.1-1.19-1.65-2.88-1.65-5.066 0-1.093.159-2.065.478-2.92.32-.85.77-1.576 1.348-2.17a5.678 5.678 0 0 1 2.08-1.355c.806-.306 1.696-.46 2.67-.46ZM53.523.446V18.18h-3.427v-1.713c-1.007 1.408-2.369 2.11-4.082 2.11-1.848 0-3.224-.61-4.133-1.836-.907-1.225-1.36-2.923-1.36-5.093 0-1.01.129-1.933.39-2.769.261-.836.634-1.556 1.121-2.16a5.008 5.008 0 0 1 1.79-1.405c.705-.33 1.503-.495 2.393-.495.656 0 1.307.115 1.954.348.646.231 1.255.678 1.826 1.34V.447h3.528ZM21.47 1.763v3.453h3.024v2.707H21.47v5.986c0 .679.144 1.138.43 1.379.284.24.655.36 1.108.36.234 0 .474-.012.718-.038.242-.024.482-.07.718-.136l.504 2.558a8.566 8.566 0 0 1-1.424.311c-.462.057-.903.086-1.322.086-1.446 0-2.516-.339-3.213-1.02-.698-.677-1.047-1.82-1.047-3.426v-6.06h-2.066V5.216h2.066V1.763h3.528ZM157 .447V18.18h-3.527V.447H157ZM59.95 5.216V18.18h-3.527V5.216h3.526Zm56.633-.398c1.36 0 2.38.37 3.06 1.106.682.737 1.021 1.933 1.021 3.589v8.668h-3.526V9.985c0-.464-.044-.841-.128-1.131-.084-.289-.196-.517-.34-.683a1.145 1.145 0 0 0-.516-.347 2.005 2.005 0 0 0-.63-.1c-.353 0-.677.058-.97.174a2.637 2.637 0 0 0-.869.595 2.793 2.793 0 0 0-.567.796 2.158 2.158 0 0 0-.215.944v7.948h-3.528V9.985c0-.464-.04-.841-.126-1.131-.084-.289-.198-.517-.34-.683a1.145 1.145 0 0 0-.517-.347 2.005 2.005 0 0 0-.63-.1 2.63 2.63 0 0 0-.97.174c-.295.116-.584.315-.87.595-.233.233-.424.51-.566.834a2.574 2.574 0 0 0-.215 1.055v7.8h-3.528V5.215h3.428v1.738c.487-.728 1.058-1.268 1.713-1.615a4.36 4.36 0 0 1 2.067-.52c.958 0 1.738.19 2.343.57.605.381 1.033.936 1.285 1.665.605-.795 1.243-1.368 1.915-1.715a4.768 4.768 0 0 1 2.22-.52ZM88.358.446V3.65H82.94v14.53h-3.78V3.65h-5.418V.446h14.616ZM69.046 7.6c-1.008 0-1.76.348-2.255 1.043-.496.697-.744 1.707-.744 3.032 0 1.34.243 2.364.73 3.067.49.704 1.244 1.056 2.269 1.056 1.008 0 1.76-.356 2.256-1.068.495-.712.742-1.73.742-3.055 0-1.325-.247-2.335-.742-3.032-.496-.695-1.248-1.043-2.256-1.043Zm60.916.05c-.437 0-.815.06-1.133.175-.32.115-.631.298-.933.547-.336.313-.584.71-.743 1.19-.161.482-.24 1.093-.24 1.839v.397c0 .846.072 1.52.215 2.025.142.506.373.914.692 1.229.336.299.676.493 1.02.584.346.091.695.136 1.048.136.385 0 .754-.073 1.107-.222a2.36 2.36 0 0 0 .92-.709c.26-.323.467-.741.618-1.253.152-.514.226-1.135.226-1.863 0-.762-.072-1.4-.215-1.914-.143-.512-.34-.93-.591-1.254a2.177 2.177 0 0 0-.894-.695 2.873 2.873 0 0 0-1.097-.212Zm-82.915-.023a2.74 2.74 0 0 0-1.097.222 2.41 2.41 0 0 0-.906.695c-.26.316-.466.729-.618 1.243-.15.513-.226 1.126-.226 1.837 0 .78.072 1.429.214 1.95.142.522.34.944.592 1.267.252.323.546.555.883.696.335.14.696.212 1.082.212.84 0 1.53-.24 2.068-.722.335-.331.582-.732.743-1.204.16-.473.239-1.08.239-1.825v-.448c0-.827-.072-1.49-.215-1.987-.143-.497-.373-.902-.693-1.217a2.164 2.164 0 0 0-.994-.583 4.379 4.379 0 0 0-1.072-.136Zm46.023-.2c-.47 0-.881.074-1.234.223a2.614 2.614 0 0 0-.895.61 2.75 2.75 0 0 0-.568.893 3.36 3.36 0 0 0-.226 1.105h5.67c0-.894-.224-1.59-.669-2.086-.445-.497-1.137-.745-2.078-.745Zm51.834 0c-.47 0-.88.074-1.233.223a2.614 2.614 0 0 0-.896.61 2.75 2.75 0 0 0-.567.893c-.134.34-.21.708-.227 1.105h5.67c0-.894-.223-1.59-.668-2.086-.446-.497-1.138-.745-2.079-.745ZM60 .446v3.13h-3.63V.446H60Z" fill="#222423"/></svg>
